22x22/apps/appimagekit-retroshare.svg

<svg xmlns="http://www.w3.org/2000/svg" width="22" height="22"><circle style="opacity:.2" cx="12" cy="10.5" r="10"/><circle style="fill:#17191e" cx="12" cy="10" r="10"/><path style="opacity:.1;fill:#f4f4f7" d="M12 0A10 10 0 0 0 2 10a10 10 0 0 0 .01.293A10 10 0 0 1 12 .5a10 10 0 0 1 9.99 9.707A10 10 0 0 0 22 10 10 10 0 0 0 12 0z"/><path style="fill:none;stroke:#236ae4;stroke-width:2" d="m14.5 17.5-10-9 13-4z"/><circle style="opacity:.2" cx="4.5" cy="9" r="3.5"/><circle style="fill:#71d1ff" cx="4.5" cy="8.5" r="3.5"/><circle style="opacity:.2" cx="17.5" cy="5" r="3.5"/><circle style="fill:#71d1ff" cx="17.5" cy="4.5" r="3.5"/><circle style="opacity:.2" cx="14.5" cy="18" r="3.5"/><circle style="fill:#71d1ff" cx="14.5" cy="17.5" r="3.5"/><path style="opacity:.2;fill:#f4f4f7" d="M17.5 1A3.5 3.5 0 0 0 14 4.5a3.5 3.5 0 0 0 .012.225A3.5 3.5 0 0 1 17.5 1.5a3.5 3.5 0 0 1 3.488 3.275A3.5 3.5 0 0 0 21 4.5 3.5 3.5 0 0 0 17.5 1zm-13 4A3.5 3.5 0 0 0 1 8.5a3.5 3.5 0 0 0 .012.225A3.5 3.5 0 0 1 4.5 5.5a3.5 3.5 0 0 1 3.488 3.275A3.5 3.5 0 0 0 8 8.5 3.5 3.5 0 0 0 4.5 5zm10 9a3.5 3.5 0 0 0-3.5 3.5 3.5 3.5 0 0 0 .012.225A3.5 3.5 0 0 1 14.5 14.5a3.5 3.5 0 0 1 3.488 3.275A3.5 3.5 0 0 0 18 17.5a3.5 3.5 0 0 0-3.5-3.5z"/></svg>

<svg xmlns="http://www.w3.org/2000/svg" width="22" height="22" version="1.1">
 <circle style="opacity:0.2" cx="12" cy="10.5" r="10"/>
 <circle style="fill:#17191e" cx="12" cy="10" r="10"/>
 <path style="opacity:0.1;fill:#f4f4f7" d="M 12,0 A 10,10 0 0 0 2,10 10,10 0 0 0 2.0098,10.293 10,10 0 0 1 12,0.5 10,10 0 0 1 21.99,10.207 10,10 0 0 0 22,10 10,10 0 0 0 12,0 Z"/>
 <path style="fill:none;stroke:#236ae4;stroke-width:2" d="m 14.5,17.5 -10,-9 13,-4 z"/>
 <circle style="opacity:0.2" cx="4.5" cy="9" r="3.5"/>
 <circle style="fill:#71d1ff" cx="4.5" cy="8.5" r="3.5"/>
 <circle style="opacity:0.2" cx="17.5" cy="5" r="3.5"/>
 <circle style="fill:#71d1ff" cx="17.5" cy="4.5" r="3.5"/>
 <circle style="opacity:0.2" cx="14.5" cy="18" r="3.5"/>
 <circle style="fill:#71d1ff" cx="14.5" cy="17.5" r="3.5"/>
 <path style="opacity:0.2;fill:#f4f4f7" d="M 17.5,1 A 3.5,3.5 0 0 0 14,4.5 3.5,3.5 0 0 0 14.011719,4.7246094 3.5,3.5 0 0 1 17.5,1.5 3.5,3.5 0 0 1 20.988281,4.7753906 3.5,3.5 0 0 0 21,4.5 3.5,3.5 0 0 0 17.5,1 Z M 4.5,5 A 3.5,3.5 0 0 0 1,8.5 3.5,3.5 0 0 0 1.0117188,8.7246094 3.5,3.5 0 0 1 4.5,5.5 3.5,3.5 0 0 1 7.9882812,8.7753906 3.5,3.5 0 0 0 8,8.5 3.5,3.5 0 0 0 4.5,5 Z m 10,9 A 3.5,3.5 0 0 0 11,17.5 3.5,3.5 0 0 0 11.011719,17.724609 3.5,3.5 0 0 1 14.5,14.5 3.5,3.5 0 0 1 17.988281,17.775391 3.5,3.5 0 0 0 18,17.5 3.5,3.5 0 0 0 14.5,14 Z"/>
</svg>
